X: 27963
T: Mouse In The House
R: slide
M: 12/8
K: Gmajor
|:B|d2 g edB d2 c A2 G|F2 A c2 d e2 d Bc^c|
d2 g e2 B d2 c A2 g|f2 d cBA G3 G2:|
|:B|d2 B dGB d2 g b2 g|f2 d AFB c3 e2 g|
d3 dB/c/d d2 g b3|afd cAF G3- G2:|

